material/paper_computer.svg

<svg width="789" height="353" viewBox="0 0 789 353" fill="none" xmlns="http://www.w3.org/2000/svg">
<path d="M0.526672 161.73C52.9067 192.06 224.357 288.99 365.117 326.43C439.457 346.23 484.007 343.71 510.737 321.48C517.127 316.17 526.307 308.52 529.547 296.19C547.097 229.95 372.227 110.34 231.017 48.51C171.347 22.41 120.587 7.83 89.2667 0C59.6567 53.91 30.1367 107.91 0.526672 161.82V161.73Z" fill="#F01427"/>
<path d="M412.547 329.94C405.707 323.91 396.437 314.01 390.857 299.52C385.547 285.93 387.077 277.56 385.727 271.44C378.437 239.76 289.247 257.58 193.397 221.94C155.057 207.63 127.697 189.36 50.8369 163.71C22.1269 154.17 12.0469 152.01 11.0569 154.26C8.26694 160.2 74.5969 197.55 117.707 219.78C154.697 238.86 181.877 250.65 221.477 267.75C303.377 303.12 338.297 313.02 354.137 317.16C378.437 323.55 398.777 327.51 412.547 329.94Z" fill="#DF0E20"/>
<path d="M466.187 168.39C462.137 160.56 457.457 156.06 453.947 153.45C449.537 150.12 448.007 150.48 438.647 144.99C434.237 142.38 429.377 139.32 423.437 135.18C406.607 123.66 397.427 118.98 386.087 112.68C356.747 96.3899 351.527 93.5999 348.557 95.9399C345.767 98.0999 347.207 102.96 347.387 109.08C347.837 128.61 333.617 143.19 327.407 151.2C293.657 194.67 302.297 289.35 272.147 296.19C268.907 296.91 264.407 296.73 263.867 298.71C262.787 302.76 280.787 310.59 302.027 319.77C317.237 326.34 324.977 329.4 335.597 333.36C374.027 347.67 434.597 357.3 447.557 348.84C449.177 347.76 457.187 341.73 457.007 340.47C454.397 340.2 445.937 336.06 442.427 333.99C434.867 329.49 410.477 321.57 407.777 254.97C405.167 190.8 440.177 184.23 447.557 178.2C454.217 172.71 461.147 170.01 466.187 168.48V168.39Z" fill="#F01427"/>
<path d="M397.067 264.51C377.537 261.09 382.217 258.48 371.417 257.04C354.677 254.7 347.657 254.34 336.677 251.73C319.847 247.59 306.887 241.47 298.517 236.97C296.717 247.59 294.647 256.41 292.937 262.98C287.717 283.05 284.567 286.92 282.317 289.08C273.947 297.18 264.317 295.29 263.777 298.8C263.057 303.84 282.677 310.41 312.107 320.4C350.807 333.54 359.987 336.87 367.997 339.12C370.427 339.84 372.587 340.38 374.387 340.83C424.517 353.61 437.927 348.84 443.777 346.05C445.217 345.33 447.737 344.07 450.617 341.91C443.147 338.94 433.697 333.99 425.057 325.44C417.947 318.42 413.897 311.58 411.737 307.89C407.867 301.23 405.797 295.74 403.907 290.52C401.567 284.31 398.867 275.58 396.977 264.69L397.067 264.51Z" fill="#DF0E20"/>
<path d="M346.847 100.08C347.387 102.42 348.107 105.93 348.107 110.34C348.197 131.58 332.357 147.06 328.127 152.46C291.767 199.35 314.357 279.18 272.867 297.45C271.517 298.08 270.347 298.44 269.897 298.62C269.087 297.81 268.367 297.09 267.557 296.28C269.987 295.2 274.217 293.22 278.447 289.53C300.497 270.45 287.357 239.04 304.277 189C308.417 176.58 311.387 167.76 318.857 157.77C327.137 146.61 332.717 144.9 339.917 131.76C344.597 123.12 347.027 115.02 347.207 106.47C347.207 103.86 347.117 101.61 346.937 100.08H346.847Z" fill="#DF0E20"/>
<path d="M441.527 170.46C437.477 174.24 423.077 188.64 413.177 211.68C411.377 215.82 410.027 220.32 409.037 226.08C401.567 267.21 427.127 318.78 466.547 337.14C473.207 340.29 479.147 341.91 484.997 342.54C528.467 347.31 561.857 334.44 595.067 322.11C686.777 288.09 735.467 291.15 748.157 259.74C753.377 246.69 742.577 217.8 728.447 223.83C677.867 245.43 634.937 254.52 634.937 254.52C634.937 254.52 751.307 227.07 775.607 192.42C780.287 185.76 782.357 178.92 782.717 172.53C783.437 159.3 771.467 136.89 758.957 135.36C750.227 134.37 739.067 143.28 726.107 150.57C666.977 184.14 643.217 194.94 643.217 194.94C643.217 194.94 671.567 180.81 723.227 152.19C771.377 125.64 787.127 115.29 788.837 98.7301C790.187 86.0401 783.077 68.9401 770.747 63.0901C763.817 59.8501 756.977 60.9301 754.367 61.3801C721.787 66.6901 630.437 136.35 620.447 144C649.157 123.48 671.117 108.9 682.367 100.17C718.457 72.0901 732.587 74.7901 733.757 51.7501C734.117 44.3701 724.937 31.8601 719.627 27.9901C684.257 2.3401 581.387 86.4901 555.737 108.09C548.897 110.16 484.907 129.96 454.487 157.5C448.367 163.08 441.617 170.37 441.617 170.37L441.527 170.46Z" fill="#FACCCB"/>
<path d="M423.077 290.25C431.267 302.4 450.527 326.79 481.577 333.63C495.167 336.6 506.867 335.34 518.297 334.08C537.917 331.92 548.897 327.15 578.597 316.89C604.517 307.98 617.387 303.39 628.547 300.51C655.457 293.49 693.977 286.56 710.177 274.41C712.427 272.7 715.127 270.27 720.617 266.76C730.157 260.64 734.117 260.28 738.167 254.88C741.137 250.83 742.127 246.69 743.207 246.96C744.287 247.23 743.927 252.09 743.927 252.36C742.757 254.61 740.057 263.07 739.247 264.6C733.127 276.3 706.937 283.23 706.937 283.23C706.937 283.23 686.507 288.72 630.347 306.36C626.387 307.62 616.217 311.04 595.877 317.97C562.667 329.31 555.287 332.01 541.247 335.25C516.767 340.92 504.167 340.56 500.297 340.38C491.207 340.02 481.217 339.48 469.337 334.62C453.227 327.96 443.417 317.34 436.937 310.14C430.277 302.67 425.867 295.47 422.987 290.16L423.077 290.25Z" fill="#F8BEBC"/>
<path d="M670.667 237.15C648.347 245.07 635.117 248.67 635.297 249.21C635.477 249.84 656.177 244.89 677.957 238.32C677.957 238.32 704.507 230.4 738.077 215.19C738.077 215.19 746.897 211.23 760.937 200.79C762.197 199.89 768.317 195.3 771.917 188.73C771.917 188.55 772.097 188.46 772.097 188.37C774.167 184.68 777.227 177.3 775.337 175.5C773.627 173.88 768.137 177.12 767.777 177.3C759.677 182.16 759.497 189.45 753.737 196.38C749.417 201.6 744.647 203.4 736.547 206.82C701.087 221.85 704.507 225.18 670.667 237.15Z" fill="#F8BEBC"/>
<path d="M705.677 149.94C673.187 175.32 641.057 188.01 641.327 188.64C641.597 189.09 660.317 179.1 696.857 160.65C696.857 160.65 716.747 150.66 748.697 131.67C765.437 121.77 778.397 113.49 781.097 99.5399C782.267 93.3299 781.547 85.7699 779.927 85.4999C778.487 85.2299 777.317 91.2599 772.277 99.3599C771.827 99.9899 767.057 107.64 760.037 113.94C752.477 120.6 745.277 123.12 740.507 125.1C726.287 131.13 720.887 137.97 705.677 149.94Z" fill="#F8BEBC"/>
<path d="M634.847 126.36C625.217 134.1 618.917 138.6 619.007 138.69C619.187 138.87 635.387 125.82 658.967 109.98C676.517 98.1001 692.177 82.9801 711.257 73.8001C712.877 72.9901 719.267 70.0201 723.587 63.2701C726.917 58.1401 728.447 51.5701 726.917 50.6701C724.847 49.5001 720.617 60.9301 706.937 68.8501C700.097 72.9001 694.697 73.7101 686.687 80.4601C683.717 82.9801 681.737 85.0501 680.567 86.4001C667.877 100.08 651.677 112.95 634.937 126.36H634.847Z" fill="#F8BEBC"/>
<path d="M521.087 110.16C531.167 111.06 531.257 116.1 554.297 128.52C578.147 141.3 586.337 140.31 588.227 147.51C591.377 159.12 574.637 177.39 557.267 180.27C550.607 181.35 545.027 180 543.947 179.73C528.827 175.59 521.627 167.67 518.927 163.26C518.477 162.54 518.207 162.36 517.937 162.27C517.937 162.27 517.757 162.27 517.667 162.27C516.587 162.27 459.617 295.56 430.727 293.31C413.807 292.05 403.007 244.17 404.267 212.13C404.717 199.89 405.977 177.48 421.457 161.28C425.507 157.05 428.657 152.91 435.047 150.57C453.137 144.09 466.907 136.98 476.717 131.22C498.947 118.26 506.777 108.99 521.087 110.25V110.16Z" fill="#FACCCB"/>
<path d="M422.356 289.53C423.616 290.97 426.316 293.49 430.276 294.39C443.507 297.54 458.626 279.36 470.236 265.5C473.296 261.81 480.226 253.26 488.146 240.39C506.326 211.05 511.816 188.46 513.166 182.7C515.326 173.07 516.856 161.91 516.046 161.73C515.326 161.55 513.886 168.21 509.206 179.46C506.596 185.76 503.356 192.15 497.146 204.84C491.476 216.27 487.336 224.01 479.326 238.32C474.196 247.5 470.056 254.52 464.116 263.07C457.816 272.16 450.706 281.07 445.936 285.48C441.256 289.89 435.676 293.85 429.286 292.77C426.226 292.23 423.976 290.7 422.446 289.44L422.356 289.53Z" fill="#F8BEBC"/>
<path d="M518.027 158.4C519.467 160.74 528.737 174.87 546.287 177.3C548.447 177.57 557.537 178.65 567.437 173.97C579.677 168.21 590.837 154.62 587.687 146.16C587.237 144.99 586.607 144 585.977 143.46C587.057 144.54 588.857 146.61 589.487 149.58C591.737 159.48 575.357 178.83 554.297 183.87C549.617 184.95 539.177 187.47 530.177 181.8C525.497 178.92 522.797 174.87 521.807 173.16C518.117 166.95 517.847 161.01 517.937 158.4H518.027Z" fill="#F8BEBC"/>
<path d="M562.217 136.53C561.047 135.81 552.317 130.77 546.197 126.63C544.037 125.19 542.957 124.38 541.787 123.57C538.457 121.14 537.377 120.06 534.227 118.26C528.107 114.66 524.957 112.86 520.457 112.5C515.507 112.05 511.817 113.67 505.607 116.37C500.387 118.62 498.587 120.15 490.217 124.92C490.217 124.92 485.267 127.71 478.877 131.13C465.647 138.06 454.937 142.2 454.937 142.11C454.937 142.11 462.587 139.41 472.307 134.1C480.137 129.87 481.307 128.25 492.647 120.78C513.257 107.28 517.937 106.92 521.447 107.46C526.127 108.09 529.367 110.43 535.037 114.39C542.597 119.79 543.677 123.48 552.857 130.32C558.167 134.37 562.397 136.62 562.307 136.62L562.217 136.53Z" fill="#F8BEBC"/>
</svg>

<?xml version="1.0" encoding="UTF-8" standalone="no"?>
<svg
   width="800"
   height="353"
   viewBox="0 0 800 353"
   fill="none"
   version="1.1"
   id="svg881"
   sodipodi:docname="paper_computer.svg"
   inkscape:version="1.2.2 (732a01da63, 2022-12-09, custom)"
   xmlns:inkscape="http://www.inkscape.org/namespaces/inkscape"
   xmlns:sodipodi="http://sodipodi.sourceforge.net/DTD/sodipodi-0.dtd"
   xmlns="http://www.w3.org/2000/svg"
   xmlns:svg="http://www.w3.org/2000/svg">
  <defs
     id="defs885" />
  <sodipodi:namedview
     id="namedview883"
     pagecolor="#ffffff"
     bordercolor="#000000"
     borderopacity="0.25"
     inkscape:showpageshadow="2"
     inkscape:pageopacity="0.0"
     inkscape:pagecheckerboard="0"
     inkscape:deskcolor="#d1d1d1"
     showgrid="false"
     inkscape:zoom="0.70977223"
     inkscape:cx="309.95859"
     inkscape:cy="190.90631"
     inkscape:window-width="1843"
     inkscape:window-height="852"
     inkscape:window-x="82"
     inkscape:window-y="52"
     inkscape:window-maximized="0"
     inkscape:current-layer="svg881" />
  <g
     id="g1018"
     transform="translate(5.2365371,0.49703727)">
    <path
       d="M 0.526672,161.73 C 52.9067,192.06 224.357,288.99 365.117,326.43 c 74.34,19.8 118.89,17.28 145.62,-4.95 6.39,-5.31 15.57,-12.96 18.81,-25.29 C 547.097,229.95 372.227,110.34 231.017,48.51 171.347,22.41 120.587,7.83 89.2667,0 59.6567,53.91 30.1367,107.91 0.526672,161.82 Z"
       fill="#f01427"
       id="path853" />
    <path
       d="m 412.547,329.94 c -6.84,-6.03 -16.11,-15.93 -21.69,-30.42 -5.31,-13.59 -3.78,-21.96 -5.13,-28.08 -7.29,-31.68 -96.48,-13.86 -192.33,-49.5 -38.34,-14.31 -65.7,-32.58 -142.5601,-58.23 -28.71,-9.54 -38.79,-11.7 -39.78,-9.45 -2.78996,5.94 63.54,43.29 106.6501,65.52 36.99,19.08 64.17,30.87 103.77,47.97 81.9,35.37 116.82,45.27 132.66,49.41 24.3,6.39 44.64,10.35 58.41,12.78 z"
       fill="#df0e20"
       id="path855" />
    <path
       d="m 466.187,168.39 c -4.05,-7.83 -8.73,-12.33 -12.24,-14.94 -4.41,-3.33 -5.94,-2.97 -15.3,-8.46 -4.41,-2.61 -9.27,-5.67 -15.21,-9.81 -16.83,-11.52 -26.01,-16.2 -37.35,-22.5 -29.34,-16.2901 -34.56,-19.0801 -37.53,-16.7401 -2.79,2.16 -1.35,7.0201 -1.17,13.1401 0.45,19.53 -13.77,34.11 -19.98,42.12 -33.75,43.47 -25.11,138.15 -55.26,144.99 -3.24,0.72 -7.74,0.54 -8.28,2.52 -1.08,4.05 16.92,11.88 38.16,21.06 15.21,6.57 22.95,9.63 33.57,13.59 38.43,14.31 99,23.94 111.96,15.48 1.62,-1.08 9.63,-7.11 9.45,-8.37 -2.61,-0.27 -11.07,-4.41 -14.58,-6.48 -7.56,-4.5 -31.95,-12.42 -34.65,-79.02 -2.61,-64.17 32.4,-70.74 39.78,-76.77 6.66,-5.49 13.59,-8.19 18.63,-9.72 z"
       fill="#f01427"
       id="path857" />
    <path
       d="m 397.067,264.51 c -19.53,-3.42 -14.85,-6.03 -25.65,-7.47 -16.74,-2.34 -23.76,-2.7 -34.74,-5.31 -16.83,-4.14 -29.79,-10.26 -38.16,-14.76 -1.8,10.62 -3.87,19.44 -5.58,26.01 -5.22,20.07 -8.37,23.94 -10.62,26.1 -8.37,8.1 -18,6.21 -18.54,9.72 -0.72,5.04 18.9,11.61 48.33,21.6 38.7,13.14 47.88,16.47 55.89,18.72 2.43,0.72 4.59,1.26 6.39,1.71 50.13,12.78 63.54,8.01 69.39,5.22 1.44,-0.72 3.96,-1.98 6.84,-4.14 -7.47,-2.97 -16.92,-7.92 -25.56,-16.47 -7.11,-7.02 -11.16,-13.86 -13.32,-17.55 -3.87,-6.66 -5.94,-12.15 -7.83,-17.37 -2.34,-6.21 -5.04,-14.94 -6.93,-25.83 z"
       fill="#df0e20"
       id="path859" />
    <path
       d="m 346.847,100.08 c 0.54,2.34 1.26,5.85 1.26,10.26 0.09,21.24 -15.75,36.72 -19.98,42.12 -36.36,46.89 -13.77,126.72 -55.26,144.99 -1.35,0.63 -2.52,0.99 -2.97,1.17 -0.81,-0.81 -1.53,-1.53 -2.34,-2.34 2.43,-1.08 6.66,-3.06 10.89,-6.75 22.05,-19.08 8.91,-50.49 25.83,-100.53 4.14,-12.42 7.11,-21.24 14.58,-31.23 8.28,-11.16 13.86,-12.87 21.06,-26.01 4.68,-8.64 7.11,-16.74 7.29,-25.29 0,-2.61 -0.09,-4.86 -0.27,-6.39 z"
       fill="#df0e20"
       id="path861" />
    <path
       d="m 441.527,170.46 c -4.05,3.78 -18.45,18.18 -28.35,41.22 -1.8,4.14 -3.15,8.64 -4.14,14.4 -7.47,41.13 18.09,92.7 57.51,111.06 6.66,3.15 12.6,4.77 18.45,5.4 43.47,4.77 76.86,-8.1 110.07,-20.43 91.71,-34.02 140.4,-30.96 153.09,-62.37 5.22,-13.05 -5.58,-41.94 -19.71,-35.91 -50.58,21.6 -93.51,30.69 -93.51,30.69 0,0 116.37,-27.45 140.67,-62.1 4.68,-6.66 6.75,-13.5 7.11,-19.89 0.72,-13.23 -11.25,-35.64 -23.76,-37.17 -8.73,-0.99 -19.89,7.92 -32.85,15.21 -59.13,33.57 -82.89,44.37 -82.89,44.37 0,0 28.35,-14.13 80.01,-42.75 48.15,-26.55 63.9,-36.9 65.61,-53.4599 1.35,-12.69 -5.76,-29.79 -18.09,-35.64 -6.93,-3.24 -13.77,-2.16 -16.38,-1.71 -32.58,5.31 -123.93,74.9699 -133.92,82.6199 28.71,-20.52 50.67,-35.1 61.92,-43.83 36.09,-28.0799 50.22,-25.3799 51.39,-48.4199 0.36,-7.38 -8.82,-19.89 -14.13,-23.76 -35.37,-25.65 -138.24,58.5 -163.89,80.0999 -6.84,2.07 -70.83,21.87 -101.25,49.41 -6.12,5.58 -12.87,12.87 -12.87,12.87 z"
       fill="#facccb"
       id="path863" />
    <path
       d="m 423.077,290.25 c 8.19,12.15 27.45,36.54 58.5,43.38 13.59,2.97 25.29,1.71 36.72,0.45 19.62,-2.16 30.6,-6.93 60.3,-17.19 25.92,-8.91 38.79,-13.5 49.95,-16.38 26.91,-7.02 65.43,-13.95 81.63,-26.1 2.25,-1.71 4.95,-4.14 10.44,-7.65 9.54,-6.12 13.5,-6.48 17.55,-11.88 2.97,-4.05 3.96,-8.19 5.04,-7.92 1.08,0.27 0.72,5.13 0.72,5.4 -1.17,2.25 -3.87,10.71 -4.68,12.24 -6.12,11.7 -32.31,18.63 -32.31,18.63 0,0 -20.43,5.49 -76.59,23.13 -3.96,1.26 -14.13,4.68 -34.47,11.61 -33.21,11.34 -40.59,14.04 -54.63,17.28 -24.48,5.67 -37.08,5.31 -40.95,5.13 -9.09,-0.36 -19.08,-0.9 -30.96,-5.76 -16.11,-6.66 -25.92,-17.28 -32.4,-24.48 -6.66,-7.47 -11.07,-14.67 -13.95,-19.98 z"
       fill="#f8bebc"
       id="path865" />
    <path
       d="m 670.667,237.15 c -22.32,7.92 -35.55,11.52 -35.37,12.06 0.18,0.63 20.88,-4.32 42.66,-10.89 0,0 26.55,-7.92 60.12,-23.13 0,0 8.82,-3.96 22.86,-14.4 1.26,-0.9 7.38,-5.49 10.98,-12.06 0,-0.18 0.18,-0.27 0.18,-0.36 2.07,-3.69 5.13,-11.07 3.24,-12.87 -1.71,-1.62 -7.2,1.62 -7.56,1.8 -8.1,4.86 -8.28,12.15 -14.04,19.08 -4.32,5.22 -9.09,7.02 -17.19,10.44 -35.46,15.03 -32.04,18.36 -65.88,30.33 z"
       fill="#f8bebc"
       id="path867" />
    <path
       d="m 705.677,149.94 c -32.49,25.38 -64.62,38.07 -64.35,38.7 0.27,0.45 18.99,-9.54 55.53,-27.99 0,0 19.89,-9.99 51.84,-28.98 16.74,-9.9 29.7,-18.18 32.4,-32.1301 1.17,-6.21 0.45,-13.77 -1.17,-14.04 -1.44,-0.27 -2.61,5.76 -7.65,13.86 -0.45,0.63 -5.22,8.2801 -12.24,14.5801 -7.56,6.66 -14.76,9.18 -19.53,11.16 -14.22,6.03 -19.62,12.87 -34.83,24.84 z"
       fill="#f8bebc"
       id="path869" />
    <path
       d="m 634.847,126.36 c -9.63,7.74 -15.93,12.24 -15.84,12.33 0.18,0.18 16.38,-12.87 39.96,-28.71 17.55,-11.8799 33.21,-26.9999 52.29,-36.1799 1.62,-0.81 8.01,-3.78 12.33,-10.53 3.33,-5.13 4.86,-11.7 3.33,-12.6 -2.07,-1.17 -6.3,10.26 -19.98,18.18 -6.84,4.05 -12.24,4.86 -20.25,11.61 -2.97,2.52 -4.95,4.59 -6.12,5.94 -12.69,13.6799 -28.89,26.5499 -45.63,39.9599 z"
       fill="#f8bebc"
       id="path871" />
    <path
       d="m 521.087,110.16 c 10.08,0.9 10.17,5.94 33.21,18.36 23.85,12.78 32.04,11.79 33.93,18.99 3.15,11.61 -13.59,29.88 -30.96,32.76 -6.66,1.08 -12.24,-0.27 -13.32,-0.54 -15.12,-4.14 -22.32,-12.06 -25.02,-16.47 -0.45,-0.72 -0.72,-0.9 -0.99,-0.99 0,0 -0.18,0 -0.27,0 -1.08,0 -58.05,133.29 -86.94,131.04 -16.92,-1.26 -27.72,-49.14 -26.46,-81.18 0.45,-12.24 1.71,-34.65 17.19,-50.85 4.05,-4.23 7.2,-8.37 13.59,-10.71 18.09,-6.48 31.86,-13.59 41.67,-19.35 22.23,-12.96 30.06,-22.23 44.37,-20.97 z"
       fill="#facccb"
       id="path873" />
    <path
       d="m 422.356,289.53 c 1.26,1.44 3.96,3.96 7.92,4.86 13.231,3.15 28.35,-15.03 39.96,-28.89 3.06,-3.69 9.99,-12.24 17.91,-25.11 18.18,-29.34 23.67,-51.93 25.02,-57.69 2.16,-9.63 3.69,-20.79 2.88,-20.97 -0.72,-0.18 -2.16,6.48 -6.84,17.73 -2.61,6.3 -5.85,12.69 -12.06,25.38 -5.67,11.43 -9.81,19.17 -17.82,33.48 -5.13,9.18 -9.27,16.2 -15.21,24.75 -6.3,9.09 -13.41,18 -18.18,22.41 -4.68,4.41 -10.26,8.37 -16.65,7.29 -3.06,-0.54 -5.31,-2.07 -6.84,-3.33 z"
       fill="#f8bebc"
       id="path875" />
    <path
       d="m 518.027,158.4 c 1.44,2.34 10.71,16.47 28.26,18.9 2.16,0.27 11.25,1.35 21.15,-3.33 12.24,-5.76 23.4,-19.35 20.25,-27.81 -0.45,-1.17 -1.08,-2.16 -1.71,-2.7 1.08,1.08 2.88,3.15 3.51,6.12 2.25,9.9 -14.13,29.25 -35.19,34.29 -4.68,1.08 -15.12,3.6 -24.12,-2.07 -4.68,-2.88 -7.38,-6.93 -8.37,-8.64 -3.69,-6.21 -3.96,-12.15 -3.87,-14.76 z"
       fill="#f8bebc"
       id="path877" />
    <path
       d="m 562.217,136.53 c -1.17,-0.72 -9.9,-5.76 -16.02,-9.9 -2.16,-1.44 -3.24,-2.25 -4.41,-3.06 -3.33,-2.43 -4.41,-3.51 -7.56,-5.31 -6.12,-3.6 -9.27,-5.4 -13.77,-5.76 -4.95,-0.45 -8.64,1.17 -14.85,3.87 -5.22,2.25 -7.02,3.78 -15.39,8.55 0,0 -4.95,2.79 -11.34,6.21 -13.23,6.93 -23.94,11.07 -23.94,10.98 0,0 7.65,-2.7 17.37,-8.01 7.83,-4.23 9,-5.85 20.34,-13.32 20.61,-13.5 25.29,-13.86 28.8,-13.32 4.68,0.63 7.92,2.97 13.59,6.93 7.56,5.4 8.64,9.09 17.82,15.93 5.31,4.05 9.54,6.3 9.45,6.3 z"
       fill="#f8bebc"
       id="path879" />
  </g>
</svg>
